X:1
T:Io v'amo e v'amero
T:Benedetto Ferrari
T:Source : Musiche Varie a voce sola---Libro terzo---Venetia---B.Magni---1641. Editor : André Vierendeels (14/01/17).
T:Notes : Original clefs : C3, F4 Editorial accidentals above the staff Original note values have been halved Figures in BC are notated in original print 
T:Io v'amo e v'amero
T:©
T:©
T:©
T:©
T:©
C:Benedetto Ferrari
Z:©
%%score 1 2
L:1/8
Q:1/4=122
M:6/4
K:G
V:1 treble-8 nm="Tenor" snm="T"
V:2 bass nm="MusicXML Part"
V:1
 z2 z2 D2 G2 GEFG | A4 z2 z2 z2 G2 | d2 dBcd e4 z2 | z6 z2 e3 e | d2 Tc3 B B6- | %5
w: Io v'a- mo e v'a- me-|ro, io|v'a- mo e v'a- me- ro|fin ch'a-|man- t'è pie- to-|
w: Co- stan- za, e pu- ra|fè so|ch'in sen fe- * mi- nil|po- ca|ce n'è, che vi|
 B/c/ d2 BBB B4 z2 | dc BA GF E2 A3 G | F2 ^GA BA G2 AB ^cB | A4 B2 B4 z2 | z2 z2 AG F4 EF | %10
w: * * * sa vi- ve- dro|non _ mi- * * * da- re ca-|gion di _ _ _ pen- ne'o _ _ _|pian- * ti,|as- sai bel- le ei|
w: _ fo- * ste di- gnel- le|non _ vor- * * * rei, che bra-|ma- * * * * no gli'A- * * *|man- * ti|che bra- ma- * *|
 G4 E2 E4 E2- | E2 E4 D4 z2 | z2 A6 A4- | A2 A4 ed cB AG | GA BA TAG G6 :: z2 z2 B2 B3 BB^c | %16
w: son e po- chi'A-|* man- ti,|e po-|* chi A- * * * * *|man- * * * * * ti,|te- ne- re- mi ben|
w: * * no gli'A-|* man- ti|à cin-|* que, e _ _ _ _ _|se- * * * * * i,|ben stret- to mi te-|
 ^c2 c2 c2 c3 ccd | d2 c2 c2 z2 z2 FG | A2 TG3 =F E4 E2 | G2 A2 B2 c6 | c2 cBcd B4 z2 | %21
w: stret- to, te- ne- re- mi be|stret- * to che fug-|gi- to'au- ge- let- to|ben che tra- ba-|gi ri- te- nu- to fu|
w: ne- te, ben stret- to mi te-|ne- * te che spez-|za- ta la re- te'il|mu- to, e fred-|do'ha- bi- ta- tor del mar|
 dc dB cd cB cA Bc | BA B^c dB c6 | d^c dc dc dc ed cB | ^A^G AB ^cB B4 z2 | BA GF ED DE FTE ED | %26
w: all' _ _ _ _ _ an- * * * * *|ti- * ca _ pri- * gion|non _ _ _ _ _ tor- * * * * *|* * * * na _ piu,|non _ _ _ _ _ tor- * * * na _|
w: tra _ _ _ _ _ piu _ _ _ _ _|fi- * di _ sen- * tier|cor- * * * * * re'à- * * * * *|* * * * guiz- * zar,|cor- * * * * * re'à- * * * guiz- *|
 D4 z2 dc dB cd | cB cA Bc BA BG AB | A6 BA BA BA | BA BA BA ed cB AG | GA BA TAG G2 z2 z2 :| %31
w: piu all' _ _ _ _ _|an- * * * * * ti- * ca _ pri- *|geon, non _ _ _ _ _|tor- * * * na, _ non _ _ _ _ _|tor- * * * na _ piu.|
w: zar, trà _ _ _ _ _|piu _ _ _ _ _ fi- * di _ sen- *|tier, cor- * * * * *|re'à _ _ _ _ _ cor- * * * * *|re'à- * * * guiz- * zar.|
V:2
"^BC" G,,12 | F,3 D, E,F, G,3 F, G,A, | B,6 ^G,3 E, F,G, | A,3 B,, C,D, E,6 | F,6 G,6 | %5
"^4""^#" F,6 B,3 A, G,F, |"^4" G,6 A,2 A,,4 |"^5 6""^5 6" D,6 E,6 |"^#6" F,6 E,3 D, ^C,B,, | %9
 ^C,6 D,6 | G,,4 A,,2 C,4 G,,2- | G,,2 A,,4 D,3 E, D,C, |"^6" B,,3 B,, C,D, E,3 D, E,F, | %13
 G,3 =F, E,D, C,6 | D,6 G,,6 :: G,12 | F,6 E,6 | D,6 z2 z2 D,E, | F,2 G,4 A,2 TG,3 =F, | %19
 E,4 D,2 C,3 D, B,,C, |"^6" A,,6 G,,4 z2 |"^6" G,6 A,6 | G,6 F,3 F, E,F, | D,6 E,6 | %24
 F,6 B,,3 B,, A,,B,, | G,,6 A,,6 |"^6" D,,6 B,,6 |"^6" A,,6 G,,6 |"^6" D,3 D, C,D, B,,6 | %29
"^#6" C,4- C,D, E,6 | D,6 !fermata!G,,6 :| %31

